assets/img/facebook.svg

<svg width="24" height="25" viewBox="0 0 24 25" fill="none" xmlns="http://www.w3.org/2000/svg">
<g clip-path="url(#clip0_3491_15097)">
<path d="M12 0.652344C5.37264 0.652344 0 6.02498 0 12.6523C0 18.2799 3.87456 23.0021 9.10128 24.2991V16.3195H6.62688V12.6523H9.10128V11.0722C9.10128 6.98786 10.9498 5.09474 14.9597 5.09474C15.72 5.09474 17.0318 5.24402 17.5685 5.39282V8.71682C17.2853 8.68706 16.7933 8.67218 16.1822 8.67218C14.2147 8.67218 13.4544 9.41762 13.4544 11.3554V12.6523H17.3741L16.7006 16.3195H13.4544V24.5645C19.3963 23.8469 24.0005 18.7877 24.0005 12.6523C24 6.02498 18.6274 0.652344 12 0.652344Z" fill="black"/>
</g>
<defs>
<clipPath id="clip0_3491_15097">
<rect width="24" height="24" fill="white" transform="translate(0 0.652344)"/>
</clipPath>
</defs>
</svg>

<svg width="24" height="25" viewBox="0 0 24 25" fill="none" xmlns="http://www.w3.org/2000/svg"><g clip-path="url(#a)"><path d="M12 .652c-6.627 0-12 5.373-12 12C0 18.28 3.875 23.002 9.101 24.3v-7.98H6.627v-3.667H9.1v-1.58c0-4.084 1.849-5.977 5.859-5.977.76 0 2.072.149 2.608.298v3.324c-.283-.03-.775-.045-1.386-.045-1.967 0-2.728.746-2.728 2.683v1.297h3.92l-.673 3.668h-3.247v8.244C19.396 23.848 24 18.789 24 12.652c0-6.627-5.373-12-12-12" fill="#F50"/></g><defs><clipPath id="a"><path fill="#F50" d="M0 .652h24v24H0z"/></clipPath></defs></svg>
